X: 16428
T: Haddock Inspector's, The
R: reel
M: 4/4
K: Aminor
|:EA, A,/A,/A, EDCD|EC C/C/C EFGE|FD D/D/D FGAc|dcAG FEDC|
EA, A,/A,/A, EDCD|EC C/C/C EFGE|FGAc dcAG|AAAG A2 G2:|
|:ea a/a/a baea|c'aea ^deea|ea a/a/a baea|eAdA cA B2|
ea a/a/a baea|c'aea ^deea|ea a/a/a gedB|AAAG A4:|
|:e3f edcB|cA A/A/A EAcA|e2ef edcB|cA A/A/A cBcd|
e3f edcB|cA A/A/A EAcA|e2ef edcB|cBA^G A2 f2:|

